assets/podman.svg

<svg xmlns="http://www.w3.org/2000/svg" viewBox="0 0 48 48"><defs><clipPath id="podman_svg__a"><path fill="#e7e8e9" stroke="#a7a9ac" stroke-dashoffset="6" stroke-linecap="square" stroke-width=".529" d="M934.66-1.484h26.194v12.832H934.66z"/></clipPath></defs><path fill="none" stroke="#3c6eb4" stroke-width="1.034" d="M26.088 22.946H38.52m-10.36 2.585h12.43"/><g stroke-width=".869" transform="matrix(1.1238 0 0 1.12477 -1056.573 24.611)"><path fill="#ccc" fill-rule="evenodd" stroke="#000" stroke-width=".69" d="M973.1 3.398c-2.308-3.742-1.791-7.352-2.883-12.51-.599-3.185-2.621-5.815-5.254-6.777-2.172-.758-6.683-.76-8.595 0-2.632.962-4.655 3.592-5.254 6.777-1.091 5.158-.574 8.768-2.883 12.51"/><ellipse cx="966.56" cy="-4.107" fill="#e7e8e9" rx="1.116" ry="1.175"/><ellipse cx="955.29" cy="-4.107" fill="#e7e8e9" rx="1.116" ry="1.175"/><path fill="none" stroke="#a7a9ac" stroke-width=".46" d="m957.225-4.753-4.147 1.111m4.618-.465-4.17 2.408m4.516-1.645-4.228 4.23m4.406-3.231-2.161 3.743M964.995-4.753l4.147 1.111m-4.618-.465 4.17 2.408m-4.516-1.645 4.228 4.23M964-2.345l2.161 3.743"/><g stroke-linecap="square" stroke-width=".69"><ellipse cx="961.04" cy="-4.929" fill="#fff" stroke="#60605b" stroke-dashoffset="6" rx="3.583" ry="3.406"/><ellipse cx="-966.53" cy="-7.841" stroke="#892ca0" rx="1.725" ry="1.769" transform="scale(-1 1)"/><path fill="none" stroke="#000" d="M968.07-11.544a1.973 1.973 0 0 0-1.458-.757 1.97 1.97 0 0 0-1.452.561"/></g><path fill="none" stroke="#000" stroke-width=".69" d="m961.045-5.517.088 1.762s1.41 1.263 2.232-.029c0 0-.088-.734-.147-.97m-2.191-.763-.088 1.762s-1.41 1.263-2.232-.029c0 0 .088-.734.147-.97"/><path fill="gray" stroke="#000" stroke-linecap="square" stroke-width=".69" d="M962.57-5.544c-.12-.31-.12-.933-.48-.933-.361 0-.694-.233-1.049-.233-.354 0-.688.233-1.048.233-.36 0-.36.622-.48.933-.121.311 1.528 1.322 1.528 1.322s1.65-1.01 1.529-1.322z"/><ellipse cx="955.36" cy="-7.841" stroke="#892ca0" stroke-linecap="square" stroke-width=".69" rx="1.725" ry="1.769"/><ellipse cx="954.78" cy="-8.338" fill="#fff" rx=".848" ry=".881"/><path fill="none" stroke="#000" stroke-linecap="square" stroke-width=".69" d="M953.81-11.544a1.973 1.973 0 0 1 1.458-.757 1.97 1.97 0 0 1 1.452.561"/><ellipse cx="965.95" cy="-8.338" fill="#fff" rx=".848" ry=".881"/></g><path fill="none" stroke="#3c6eb4" stroke-width="1.034" d="M10.677 28.378h32.178"/><g stroke-width="1.204" clip-path="url(#podman_svg__a)" transform="translate(-755.123 22.791) scale(.81155)"><path fill="#ccc" fill-rule="evenodd" stroke="#000" stroke-width=".956" d="M958.32 13.737c-.262-1.782-.39-3.72-.873-6.002-.53-2.817-2.322-5.143-4.654-5.994-1.924-.67-5.92-.672-7.613 0-2.332.851-4.124 3.177-4.654 5.994-.484 2.281-.611 4.22-.873 6.002"/><ellipse cx="954.2" cy="12.162" fill="#e7e8e9" rx=".988" ry="1.039"/><ellipse cx="944.21" cy="12.162" fill="#e7e8e9" rx=".988" ry="1.039"/><path fill="none" stroke="#a7a9ac" stroke-width=".811" d="m956.42-5.981-4.67 1.251m5.2-.524-4.697 2.712m5.087-1.852L952.577.37m4.963-3.64L955.106.947" transform="matrix(.78652 0 0 .78531 193.69 16.288)"/><path fill="none" stroke="#a7a9ac" stroke-width=".811" d="m956.42-5.981-4.67 1.251m5.2-.524-4.697 2.712m5.087-1.852L952.577.37m4.963-3.64L955.106.947" transform="matrix(-.78652 0 0 .78531 1705 16.288)"/><g stroke-linecap="square" stroke-width=".956"><ellipse cx="949.31" cy="11.435" fill="#fff" stroke="#60605b" stroke-dashoffset="6" rx="3.174" ry="3.013"/><ellipse cx="-954.17" cy="8.86" stroke="#892ca0" rx="1.528" ry="1.565" transform="scale(-1 1)"/><path fill="none" stroke="#000" d="M955.54 5.584a1.75 1.75 0 0 0-1.292-.67 1.75 1.75 0 0 0-1.286.497"/></g><path fill="none" stroke="#000" stroke-width="1.216" d="m962.31-5.783.1 1.984s1.587 1.422 2.513-.033c0 0-.1-.826-.166-1.091m-2.467-.86-.1 1.984s-1.587 1.422-2.513-.033c0 0 .1-.826.166-1.091" transform="matrix(.78652 0 0 .78531 192.44 15.457)"/><path fill="gray" stroke="#000" stroke-linecap="square" stroke-width=".956" d="M950.67 10.892c-.106-.275-.106-.825-.426-.825s-.614-.207-.928-.207-.61.207-.929.207c-.32 0-.32.55-.426.825-.106.275 1.355 1.17 1.355 1.17s1.46-.895 1.354-1.17z"/><ellipse cx="944.28" cy="8.86" stroke="#892ca0" stroke-linecap="square" stroke-width=".956" rx="1.528" ry="1.565"/><ellipse cx="943.77" cy="8.42" fill="#fff" rx=".752" ry=".78"/><path fill="none" stroke="#000" stroke-linecap="square" stroke-width=".956" d="M942.91 5.584a1.75 1.75 0 0 1 1.292-.67c.472-.02.95.165 1.286.497"/><ellipse cx="953.76" cy="8.529" fill="#fff" rx=".752" ry=".78"/></g><g fill="none" stroke-width="1.034"><path stroke="#892ca0" stroke-linecap="round" stroke-linejoin="round" d="M24.123 46.937 5.265 37.914.555 17.528 13.539 1.129l20.901-.062 13.08 16.32L42.928 37.8z"/><path stroke="#3c6eb4" d="M6.025 32.514h19.38M15.23 36.39h26.876"/></g><g transform="translate(-915.16 25.046) scale(.97721)"><path fill="#ccc" fill-rule="evenodd" stroke="#000" stroke-width=".794" d="M977.47 11.111c-.233-1.582-.346-3.304-.775-5.329-.471-2.501-2.062-4.566-4.132-5.322-1.708-.595-5.256-.597-6.76 0-2.07.756-3.661 2.82-4.133 5.322-.429 2.025-.542 3.747-.775 5.329"/><ellipse cx="973.82" cy="9.712" fill="#e7e8e9" rx=".878" ry=".922"/><ellipse cx="964.95" cy="9.712" fill="#e7e8e9" rx=".878" ry=".922"/><path fill="none" stroke="#a7a9ac" stroke-width=".758" d="m955.75-3.96-4.67 1.252m5.2-.524-4.697 2.711" transform="matrix(.69835 0 0 .69727 299.02 11.966)"/><path fill="none" stroke="#a7a9ac" stroke-width=".758" d="m956.42-5.981-4.67 1.251m5.2-.524-4.697 2.712" transform="matrix(-.69835 0 0 .69727 1640.5 13.376)"/><g stroke-linecap="square" stroke-width=".794"><ellipse cx="969.48" cy="9.066" fill="#fff" stroke="#60605b" stroke-dashoffset="6" rx="2.818" ry="2.675"/><ellipse cx="-973.79" cy="6.78" stroke="#892ca0" rx="1.357" ry="1.389" transform="scale(-1 1)"/><path fill="none" stroke="#000" d="M975.01 3.872a1.553 1.553 0 0 0-1.147-.595 1.55 1.55 0 0 0-1.142.441"/></g><path fill="none" stroke="#000" stroke-width="1.137" d="m962.31-5.783.1 1.984s1.587 1.422 2.513-.033c0 0-.1-.826-.166-1.091m-2.467-.86-.1 1.984s-1.587 1.422-2.513-.033c0 0 .1-.826.166-1.091" transform="matrix(.69835 0 0 .69727 297.44 12.638)"/><path fill="gray" stroke="#000" stroke-linecap="square" stroke-width=".794" d="M970.68 8.584c-.095-.244-.095-.733-.378-.733-.284 0-.546-.183-.825-.183-.278 0-.54.183-.824.183-.284 0-.284.489-.378.733-.095.244 1.202 1.038 1.202 1.038s1.297-.794 1.203-1.038z"/><ellipse cx="965.01" cy="6.78" stroke="#892ca0" stroke-linecap="square" stroke-width=".794" rx="1.357" ry="1.389"/><ellipse cx="964.55" cy="6.389" fill="#fff" rx=".667" ry=".692"/><path fill="none" stroke="#000" stroke-linecap="square" stroke-width=".794" d="M963.79 3.872a1.553 1.553 0 0 1 1.147-.595 1.55 1.55 0 0 1 1.142.441"/><ellipse cx="973.48" cy="6.48" fill="#fff" rx=".667" ry=".692"/></g><path fill="none" stroke="#3c6eb4" stroke-width="1.034" d="M13.159 38.976h12.432M20.4 41.562h10.238"/></svg>

<svg xmlns="http://www.w3.org/2000/svg" viewBox="0 0 48 48"><defs><clipPath id="a"><path fill="#e7e8e9" stroke="#a7a9ac" stroke-dashoffset="6" stroke-linecap="square" stroke-width=".529" d="M934.66-1.484h26.194v12.832H934.66z"/></clipPath></defs><path fill="none" stroke="#3c6eb4" stroke-width="1.0338881800000002" d="M26.088 22.946H38.52M28.16 25.531H40.59"/><g stroke-width=".869" transform="matrix(1.1238 0 0 1.12477 -1056.573 24.611)"><path fill="#ccc" fill-rule="evenodd" stroke="#000" stroke-width=".69" d="M973.1 3.398c-2.308-3.742-1.791-7.352-2.883-12.51-.599-3.185-2.621-5.815-5.254-6.777-2.172-.758-6.683-.76-8.595 0-2.632.962-4.655 3.592-5.254 6.777-1.091 5.158-.574 8.768-2.883 12.51"/><ellipse cx="966.56" cy="-4.107" fill="#e7e8e9" rx="1.116" ry="1.175"/><ellipse cx="955.29" cy="-4.107" fill="#e7e8e9" rx="1.116" ry="1.175"/><g fill="none" stroke="#a7a9ac" stroke-width=".518"><path stroke-width=".4599322" d="m957.225-4.753-4.147 1.111M957.696-4.107l-4.17 2.408M958.042-3.344l-4.228 4.23M958.22-2.345l-2.161 3.743"/></g><g fill="none" stroke="#a7a9ac" stroke-width=".518"><path stroke-width=".4599322" d="m964.995-4.753 4.147 1.111M964.524-4.107l4.17 2.408M964.178-3.344l4.228 4.23M964-2.345l2.161 3.743"/></g><g stroke-linecap="square" stroke-width=".69"><ellipse cx="961.04" cy="-4.929" fill="#fff" stroke="#60605b" stroke-dashoffset="6" rx="3.583" ry="3.406"/><ellipse cx="-966.53" cy="-7.841" stroke="#892ca0" rx="1.725" ry="1.769" transform="scale(-1 1)"/><path fill="none" stroke="#000" d="M968.07-11.544a1.973 1.973 0 0 0-1.458-.757 1.97 1.97 0 0 0-1.452.561"/></g><g fill="none" stroke="#000" stroke-width=".777"><path stroke-width=".6898983000000001" d="m961.045-5.517.088 1.762s1.41 1.263 2.232-.029c0 0-.088-.734-.147-.97M961.027-5.517l-.088 1.762s-1.41 1.263-2.232-.029c0 0 .088-.734.147-.97"/></g><path fill="gray" stroke="#000" stroke-linecap="square" stroke-width=".69" d="M962.57-5.544c-.12-.31-.12-.933-.48-.933-.361 0-.694-.233-1.049-.233-.354 0-.688.233-1.048.233-.36 0-.36.622-.48.933-.121.311 1.528 1.322 1.528 1.322s1.65-1.01 1.529-1.322z"/><ellipse cx="955.36" cy="-7.841" stroke="#892ca0" stroke-linecap="square" stroke-width=".69" rx="1.725" ry="1.769"/><ellipse cx="954.78" cy="-8.338" fill="#fff" rx=".848" ry=".881"/><path fill="none" stroke="#000" stroke-linecap="square" stroke-width=".69" d="M953.81-11.544a1.973 1.973 0 0 1 1.458-.757 1.97 1.97 0 0 1 1.452.561"/><ellipse cx="965.95" cy="-8.338" fill="#fff" rx=".848" ry=".881"/></g><path fill="none" stroke="#3c6eb4" stroke-width="1.0338881800000002" d="M10.677 28.378h32.178"/><g stroke-width="1.204" clip-path="url(#a)" transform="matrix(.81155 0 0 .81155 -755.123 22.791)"><path fill="#ccc" fill-rule="evenodd" stroke="#000" stroke-width=".956" d="M958.32 13.737c-.262-1.782-.39-3.72-.873-6.002-.53-2.817-2.322-5.143-4.654-5.994-1.924-.67-5.92-.672-7.613 0-2.332.851-4.124 3.177-4.654 5.994-.484 2.281-.611 4.22-.873 6.002"/><ellipse cx="954.2" cy="12.162" fill="#e7e8e9" rx=".988" ry="1.039"/><ellipse cx="944.21" cy="12.162" fill="#e7e8e9" rx=".988" ry="1.039"/><g fill="none" stroke="#a7a9ac" stroke-width=".811"><path d="m956.42-5.981-4.67 1.251M956.95-5.254l-4.697 2.712M957.34-4.394 952.577.37M957.54-3.27 955.106.947" transform="matrix(.78652 0 0 .78531 193.69 16.288)"/></g><g fill="none" stroke="#a7a9ac" stroke-width=".811"><path d="m956.42-5.981-4.67 1.251M956.95-5.254l-4.697 2.712M957.34-4.394 952.577.37M957.54-3.27 955.106.947" transform="matrix(-.78652 0 0 .78531 1705 16.288)"/></g><g stroke-linecap="square" stroke-width=".956"><ellipse cx="949.31" cy="11.435" fill="#fff" stroke="#60605b" stroke-dashoffset="6" rx="3.174" ry="3.013"/><ellipse cx="-954.17" cy="8.86" stroke="#892ca0" rx="1.528" ry="1.565" transform="scale(-1 1)"/><path fill="none" stroke="#000" d="M955.54 5.584a1.75 1.75 0 0 0-1.292-.67c-.472-.02-.95.165-1.286.497"/></g><g fill="none" stroke="#000" stroke-width="1.216"><path d="m962.31-5.783.1 1.984s1.587 1.422 2.513-.033c0 0-.1-.826-.166-1.091M962.29-5.783l-.1 1.984s-1.587 1.422-2.513-.033c0 0 .1-.826.166-1.091" transform="matrix(.78652 0 0 .78531 192.44 15.457)"/></g><path fill="gray" stroke="#000" stroke-linecap="square" stroke-width=".956" d="M950.67 10.892c-.106-.275-.106-.825-.426-.825s-.614-.207-.928-.207-.61.207-.929.207c-.32 0-.32.55-.426.825-.106.275 1.355 1.17 1.355 1.17s1.46-.895 1.354-1.17z"/><ellipse cx="944.28" cy="8.86" stroke="#892ca0" stroke-linecap="square" stroke-width=".956" rx="1.528" ry="1.565"/><ellipse cx="943.77" cy="8.42" fill="#fff" rx=".752" ry=".78"/><path fill="none" stroke="#000" stroke-linecap="square" stroke-width=".956" d="M942.91 5.584a1.75 1.75 0 0 1 1.292-.67c.472-.02.95.165 1.286.497"/><ellipse cx="953.76" cy="8.529" fill="#fff" rx=".752" ry=".78"/></g><g fill="none" stroke-width="1.058"><path stroke="#892ca0" stroke-linecap="round" stroke-linejoin="round" stroke-width="1.0338881800000002" d="M24.123 46.937 5.265 37.914.555 17.528 13.539 1.129l20.901-.062 13.08 16.32L42.928 37.8z"/><path stroke="#3c6eb4" stroke-width="1.0338881800000002" d="M6.025 32.514h19.38M15.23 36.39h26.876"/></g><g transform="translate(-915.16 25.046) scale(.97721)"><path fill="#ccc" fill-rule="evenodd" stroke="#000" stroke-width=".794" d="M977.47 11.111c-.233-1.582-.346-3.304-.775-5.329-.471-2.501-2.062-4.566-4.132-5.322-1.708-.595-5.256-.597-6.76 0-2.07.756-3.661 2.82-4.133 5.322-.429 2.025-.542 3.747-.775 5.329"/><ellipse cx="973.82" cy="9.712" fill="#e7e8e9" rx=".878" ry=".922"/><ellipse cx="964.95" cy="9.712" fill="#e7e8e9" rx=".878" ry=".922"/><g fill="none" stroke="#a7a9ac" stroke-width=".758"><path d="m955.75-3.96-4.67 1.252M956.28-3.232l-4.697 2.711" transform="matrix(.69835 0 0 .69727 299.02 11.966)"/></g><g fill="none" stroke="#a7a9ac" stroke-width=".758"><path d="m956.42-5.981-4.67 1.251M956.95-5.254l-4.697 2.712" transform="matrix(-.69835 0 0 .69727 1640.5 13.376)"/></g><g stroke-linecap="square" stroke-width=".794"><ellipse cx="969.48" cy="9.066" fill="#fff" stroke="#60605b" stroke-dashoffset="6" rx="2.818" ry="2.675"/><ellipse cx="-973.79" cy="6.78" stroke="#892ca0" rx="1.357" ry="1.389" transform="scale(-1 1)"/><path fill="none" stroke="#000" d="M975.01 3.872a1.553 1.553 0 0 0-1.147-.595 1.55 1.55 0 0 0-1.142.441"/></g><g fill="none" stroke="#000" stroke-width="1.137"><path d="m962.31-5.783.1 1.984s1.587 1.422 2.513-.033c0 0-.1-.826-.166-1.091M962.29-5.783l-.1 1.984s-1.587 1.422-2.513-.033c0 0 .1-.826.166-1.091" transform="matrix(.69835 0 0 .69727 297.44 12.638)"/></g><path fill="gray" stroke="#000" stroke-linecap="square" stroke-width=".794" d="M970.68 8.584c-.095-.244-.095-.733-.378-.733-.284 0-.546-.183-.825-.183-.278 0-.54.183-.824.183-.284 0-.284.489-.378.733-.095.244 1.202 1.038 1.202 1.038s1.297-.794 1.203-1.038z"/><ellipse cx="965.01" cy="6.78" stroke="#892ca0" stroke-linecap="square" stroke-width=".794" rx="1.357" ry="1.389"/><ellipse cx="964.55" cy="6.389" fill="#fff" rx=".667" ry=".692"/><path fill="none" stroke="#000" stroke-linecap="square" stroke-width=".794" d="M963.79 3.872a1.553 1.553 0 0 1 1.147-.595 1.55 1.55 0 0 1 1.142.441"/><ellipse cx="973.48" cy="6.48" fill="#fff" rx=".667" ry=".692"/></g><path fill="none" stroke="#3c6eb4" stroke-width="1.0338881800000002" d="M13.159 38.976h12.432M20.4 41.562h10.238"/></svg>
